X:1
T:Der Englische Gruss.
T:Johannes Brahms (1833-1897) Ed. A. Hughes
T:Der Englische Gruss. 
T:No. 1 from "Marienlieder" Op. 22 (1859)
T:Copyright © 
T:Copyright © 
T:Copyright © 
T:Copyright © 
T:Copyright © 
T:Copyright © 
T:Copyright © 
T:Copyright © 
T:Copyright © 
T:Copyright © 
T:Copyright © 
T:Copyright © 
C:Johannes Brahms
C:(1833-1897)
C:Ed. A. Hughes
Z:Copyright ©
%%score [ 1 2 3 4 ]
L:1/8
Q:1/4=120
M:3/4
K:Eb
V:1 treble nm="SOPRANO" snm="S."
V:2 treble nm="ALTO" snm="A."
V:3 treble-8 transpose=-12 nm="TENOR" snm="T."
V:4 bass nm="BASS" snm="B."
V:1
"^Con moto." z2 | z4"^f" e2 | B2 G2 A2 | B2 G2 A2 | B2- A2!>(! G2 | F2 E2!>)! z2 | z2 z2"^f" e2 | %7
w: |||||||
w: |1.Ge-|grü- sset Ma-|ri- a, du|Mut- ter der|Gna- den!|Ge-|
w: |2.Ma-|ri- a, du|sollst ei- nen|Sohn _ em-|pfan- gen!|Ma-|
 B2 G2 A2 | B2 G2 A2 | B2- A2!>(! G2 | F2!>)! !fermata!E2"^f" e2 | (cd e2) f2 | dc B2 d2 | %13
w: ||||||
w: grü- sset Ma-|ri- a, du|Mut- ter der|Gna- den! So|san- * gen die|En- * gel der|
w: ri- a, du|sollst ei- nen|Sohn _ em-|pfan- gen! Dar|nach _ _ tun|Him- * mel und|
 G=A B2!>(! c2 |!>(! =AG!>)!!>)! !fermata!F2"^p" B2 | (c2 B2) G2 | A2 G2!<(! E2 | F2 A2!<)! B2 | %18
w: |||||
w: Jung- * frau Ma-|ri- * a in|ih- rem Ge-|be- te, da-|rin- nen, da-|
w: Er- * de ver-|lan- * gen, dass|du _ die|Mut- ter, die|Mut- ter des|
"^f" e2 e2 d2 |!>(! e4!>)! :: z2 | z2 z2"^f" e2 | (B2 G2) A2 | (B2 G2) A2 | (B2 A2) G2 | %25
w: |||5.Ma-|ri- a die|hö- * ret|sol- * ches|
w: rin- nen sie|rang.||3.O|En- gel, wie|mag _ ich|das _ er-|
w: Her- ren sollst|sein.||4.Wie|Tau kommt _|ü- ber die|Blu- * men-|
!>(! F2!>)! E2 z2 | z2 z2"^f" e2 | (B2 G2) A2 | (B2 G2) A2 | (B2 A2) G2 | %30
w: ger- ne,|Ma-|ri- a die|hö- * ret|sol- * ches|
w: le- ben,|O|En- gel, wie|mag _ ich|das _ er-|
w: mat- ten,|wie|Tau _ kommt|ü- ber die|Blu- * men-|
!>(! F2!>)! !fermata!E2"^f" e2 | cd e2 f2 | (dc B2) d2 | (G=A B2) c2 | %34
w: ger- ne; sie|sprach: * ich bin|ein- * * ne|Magd _ _ des|
w: le- ben; ich|ha- * be mich|noch _ kei- nem|Man- * ne er-|
w: mat- ten, so|soll * dich der|hei- * li- ge|Geist _ ü- ber-|
!>(! =AG!>)! !fermata!F2"^p" B2 | (c2 B2) G2 | (A2 G2)!<(! E2 | F2 A2!<)! B2 |"^f" e4 d2 | e4 x2 :| %40
w: Her- * ren, nach|dei- * nem|Wor- te ge-|sche- he, ge-|sche- he|mir.|
w: ge- * ben in|die- ser, in|die- * ser|wei- ten und|brei- ten|Welt.|
w: schat- * ten, so|sollt _ der|Hei- land, der|Hei- land ge-|bo- ren|sein.|
 x4"^Poco meno Allegro.""^pp" E2 | B2 c2 d2 | c2 c2 c2 | B4 e2 | d4 B2 | (c2 =B2)!<(! c2 | %46
w: ||||||
w: 6.Die|En- gel nun|san- ken auf|ih- re|Knie, sie|san- * gen|
w: ||||||
 =B2 c2!<)! d2 |"^f" =e2 c2 d2 | (=e2 f2 d2) |!>(! !fermata!=e4!>)!"^p" c2 | c2 B2 G2 | %51
w: |||||
w: al- le Ma-|ri- a, Ma-|ri- * *|a, sie|san- gen Ma-|
w: |||||
 A2 G2!<(! E2 | F2 A2!<)! B2 |"^f" e4 d2 | !fermata!e4 x2 |] z6 | %56
w: |||||
w: ri- a, Ma-|ri- a den|Lob- ge-|sang!||
w: |||||
V:2
"^f" B,2 | E2 F2 G2 | A2 GF E2 | F2 E2 F2 | G2- F2!>(! E2 | ED E2!>)!"^f" B,2 | E2 F2 G2 | %7
w: |||||||
w: 1.Ge-|grü- sset, ge-|grü- sset _ Ma-|ri- a, du|Mut- ter der|Gna- * den! Ge-|grü- sset, ge-|
w: 2.Ma-|ri- a, Ma-|ri- a _ du|sollst ei- nen|Sohn _ em-|pfan- * gen! Ma-|ri- a, Ma-|
 A2 GF E2 | F2 E2 F2 | G2- F2 E2 |!>(! ED!>)! !fermata!E2"^f" G2 | F2 (=AB c2) | B=A F2 F2 | %13
w: ||||||
w: grü- sset _ Ma-|ri- a, du|Mut- ter der|Gna- * den! So|san- gen _ die|En- * gel der|
w: ri- a, _ du|sollst ei- nen|Sohn _ em-|pfan- * gen! Dar|nach _ _ tun|Him- * mel und|
 G2 G2 G2 | F2 !fermata!F2"^p" F2 | (A2 F2) E2 | F2 D2!<(! C2 | F2 F2!<)! F2 |"^f" B2 c2 BA | %19
w: ||||||
w: Jung- frau Ma-|ri- a in|ih- rem Ge-|be- te, da-|rin- nen, da-|rin- nen sie *|
w: Er- de ver-|lan- gen, dass|du _ die|Mut- ter, die|Mut- ter des|Her- ren sollst _|
!>(! G4!>)! ::"^f" B,2 | (E2 F2) G2 | A2 (GF E2) | (F2 E2) F2 | (G2 F2) E2 |!>(! ED!>)! E2 B,2 | %26
w: |5.Ma-|ri- a, Ma-|ri- a _ die|hö- * ret|sol- * ches|ger- * ne, Ma-|
w: rang.|3.O|En- gel, O|En- gel, * wie|mag _ ich|das _ er-|le- * ben, O|
w: sein.|4.Wie|Thau, _ wie|Tau kommt _ _|ü- ber die|Blu- * men-|mat- * ten, wie|
"^f" (E2 F2) G2 | (A2 GF) E2 | (F2 E2) F2 | (G2 F2) E2 |!>(! ED!>)! !fermata!E2"^f" G2 | %31
w: ri- a, Ma-|ri- a * die|hö- * ret|sol- * ches|ger- * ne; sie|
w: En- gel, O|En- gel, _ wie|mag _ ich|das _ er-|le- * ben; ich|
w: Tau, _ wie|Tau _ _ kommt|ü- ber die|Blu- * men-|mat- * ten, so|
 F2 =AB c2 | (B=A F2) F2 | G2- G2 G2 |!>(! F2!>)! !fermata!F2"^p" F2 | (A2 F2) E2 | %36
w: sprach: ich _ bin|ei- * * ne|Magd _ des|Her- ren, nach|dei- * nem|
w: ha- be _ mich|noch _ kei- nem|Man- ne er-|ge- ben in|die- ser, in|
w: soll dich * der|hei- * li- ge|Geist ü- ber-|schat- ten, so|sollt _ der|
 (F2 D2)!<(! C2 | F2 F2!<)! F2 |"^f" (B2 c2) BA | G4 x2 :| x4 z2 | z2 z2"^pp" B,2 | (F2 G2) A2 | %43
w: Wor- te ge-|sche- he, ge-|sche- * he _|mir.||||
w: die- * ser|wei- ten und|brei- * ten _|Welt.||6.Die|En- gel nun|
w: Hei- land, der|Hei- land ge-|bo- * ren *|sein.||||
 (G2 A2) B2 | B4 F2 | G2 G2!<(! G2 | G2 G2!<)! =B2 |"^f" c2 c2 =B2 | (c4 =B2) | %49
w: ||||||
w: san- * gen|al- le,|sie san- gen|al- le Ma-|ri- a, Ma-|ri- *|
w: ||||||
!>(!!>(! !fermata!c4!>)!!>)!"^p" A2 | A2 F2 E2 | F2 D2!<(! C2 | F2 F2!<)! F2 |"^f" (B2 c2) BA | %54
w: |||||
w: a, sie|san- gen Ma-|ri- a, Ma-|ri- a den|Lob- * ge- *|
w: |||||
 !fermata!G4 x2 |] z6 | %56
w: ||
w: sang!||
w: ||
V:3
"^f" B2 | G2 B2 e2 | f2 ed c2 | d2 ed c2 | (Bc d2)!>(! e2 |!>(! A2 G2!>)!!>)!"^f" B2 | G2 B2 e2 | %7
w: |||||||
w: 1.Ge-|grü- sset, ge-|grü- sset _ Ma-|ri- a, _ du|Mut- * ter der|Gna- den! Ge-|grü- sset, ge-|
w: 2.Ma-|ri- a, Ma-|ri- a _ du|sollst ei- * nen|Sohn _ _ em-|pfan- gen! Ma-|ri- a, Ma-|
 f2 ed c2 | d2 ed c2 | (Bc d2)!>(! e2 |!>(! A2!>)!!>)! !fermata!G2"^f" B2 | (=AB c2) c2 | %12
w: |||||
w: grü- sset _ Ma-|ri- a, _ du|Mut- * ter der|Gna- den! So|san- * gen die|
w: ri- a, * du|sollst ei- * nen|Sohn _ _ em-|pfan- gen! Dar|nach _ _ tun|
 fe d2 =A2 | d3 f!>(! =e2 | fc!>)! !fermata!=A2"^p" d2 | (e2 d2) c2 | c2 B2!<(! c2 | %17
w: |||||
w: En- * gel der|Jung- frau Ma-|ri- * a in|ih- rem Ge-|be- te, da-|
w: Him- * mel und|Er- de ver-|lan- * gen, dass|du _ die|Mut- ter, die|
 _d2 d2!<)! =d2 |"^f" g2 g2 f2 |!>(! e4!>)! ::"^f" B2 | (G2 B2) e2 | (f2 ed) c2 | (d2 ed) c2 | %24
w: |||5.Ma-|ri- a, Ma-|ri- a _ die|hö- * * ret|
w: rin- nen, da-|rin- nen sie|rang.|3.O|En- gel, O|En- gel, _ wie|mag _ _ ich|
w: Mut- ter des|Her- ren sollst|sein.|4.Wie|Thau, _ wie|Tau kommt _ _|ü- ber _ die|
 (Bc d2) e2 |!>(! A2!>)! G2 B2 |"^f" (G2 B2) e2 | (f2 ed) c2 | (d2 ed) c2 | (Bc d2) e2 | %30
w: sol- * * ches|ger- ne, Ma-|ri- a, Ma-|ri- a _ die|hö- * * ret|sol- * * ches|
w: das _ _ er-|le- ben, O|En- gel, O|En- gel, * wie|mag _ _ ich|das _ _ er-|
w: Blu- * * men-|mat- ten, wie|Tau, _ wie|Tau _ _ kommt|ü- ber _ die|Blu- * * men-|
!>(! A2!>)! !fermata!G2"^f" B2 | =AB c2 c2 | (fe d2) =A2 | (d3 f) =e2 | %34
w: ger- ne; sie|sprach: _ ich bin|ei- * * ne|Magd _ des|
w: le- ben; ich|ha- * be mich|noch _ kei- nem|Man- ne er-|
w: mat- ten, so|soll _ dich der|hei- * li- ge|Geist ü- ber-|
!>(! fc!>)! !fermata!=A2"^p" d2 | (e2 d2) c2 | (c2 B2)!<(! c2 | _d2 d2!<)! =d2 |"^f" g4 f2 | %39
w: Her- * ren, nach|dei- * nem|Wor- te ge-|sche- he, ge-|sche- he|
w: ge- * ben in|die- ser, in|die- * ser|wei- ten und|brei- ten|
w: schat- * ten, so|sollt _ der|Hei- land, der|Hei- land ge-|bo- ren|
 e4 x2 :| x4 z2 | z6 | z2 z2"^pp" A2 | (e2 f2) g2 | f4 d2 | e2 d2!<(! e2 | d2 e2!<)! g2 | %47
w: mir.||||||||
w: Welt.|||6.Die|En- * gel|san- gen,|sie san- gen|al- le Ma-|
w: sein.||||||||
"^f" (g6- | g2 =a2 g2) | !fermata!g4"^p" f2 | e2 d2 c2 | c2 B2!<(! c2 | _d2 d2!<)! =d2 | %53
w: ||||||
w: ri-||a, sie|san- gen Ma-|ri- a, Ma-|ri- a den|
w: ||||||
"^f" g4 f2 | !fermata!e4 x2 |] z6 | %56
w: |||
w: Lob- ge-|sang!||
w: |||
V:4
 z2 | z6 | z2"^f" z2 C2 | B,2 CB, A,2 | G,-A, B,2 C2 | CB, E,2 z2 | z6 | z2"^f" z2 C2 | %8
w: ||||||||
w: ||1.Ma-|ri- a _ du|Mut- * ter der|Gna- * den!||Ma-|
w: ||2.Du|sollst ei- * nen|Sohn _ _ em-|pfan- * gen!||Du|
 B,2 CB, A,2 | (G,A, B,2) C2 | CB, !fermata!E,2"^f" E,2 | (F,2- F,G,) =A,2 | B,2 B,2 D,2 | %13
w: |||||
w: ri- a _ du|Mut- * ter der|Gna- * den So|san- gen _ die|En- gel der|
w: sollst ei- * nen|Sohn _ _ em-|pfan- * gen! Dar|nach _ _ tun|Him- mel und|
 B,=A, G,2 C,2 |!>(! F,2!>)! !fermata!F,2"^p" B,2 | (A,2 B,2) C2 | F,2 G,2!<(! A,2 | %17
w: ||||
w: Jung- * frau Ma-|ri- a in|ih- rem Ge-|be- te, da-|
w: Er- * de ver-|lan- gen, dass|du _ die|Mut- ter, die|
 _D3 C B,!<)!A, |"^f" G,2 A,2 B,2 |!>(! E,4!>)! :: z2 | z6 | z2 z2"^f" C2 | (B,2 CB,) A,2 | %24
w: |||||5.Die|hö- * * ret|
w: rin- nen, da- *|rin- nen sie|rang.|||3.Wie|mag _ _ ich|
w: Mut- ter des _|Her- ren sollst|sein.|||4.Kommt|ü- ber _ die|
 (G,A, B,2) C2 |!>(! CB, E,2!>)! z2 | z6 | z2"^f" z2 C2 | (B,2 CB,) A,2 | (G,A, B,2) C2 | %30
w: sol- * * ches|ger- * ne,||die|hö- * * ret|sol- * * ches|
w: das _ _ er-|le- * ben,||wie|mag _ _ ich|das _ _ er-|
w: Blu- * * men-|mat- * ten,||kommt|ü- ber _ die|Blu- * * men-|
!>(! CB,!>)! !fermata!E,2"^f" E,2 | F,2 F,G, =A,2 | B,2- B,2 D,2 | (B,=A, G,2) C,2 | %34
w: ger- * ne; sie|sprach: ich _ bin|ei- * ne|Magd _ _ des|
w: le- * ben; ich|ha- be _ mich|noch kei- nem|Man- * ne er-|
w: mat- * ten, so|soll dich * der|hei- li- ge|Geist _ ü- ber-|
!>(! F,2!>)! !fermata!F,2"^p" B,2 | (A,2 B,2) C2 | (F,2 G,2)!<(! A,2 | _D3 C B,!<)!A, | %38
w: Her- ren, nach|dei- * nem|Wor- te ge-|sche- he, ge- *|
w: ge- ben in|die- ser, in|die- * ser|wei- ten und _|
w: schat- ten, so|sollt _ der|Hei- land, der|Hei- land ge- *|
"^f" (G,2 A,2) B,2 | E,4 x2 :| x4 z2 | z6 | z6 | z2 z2"^pp" E,2 | (B,2 C2) D2 | (C2 G,2)!<(! C2 | %46
w: sche- * he|mir.|||||||
w: brei- * ten|Welt.||||6.Die|En- * gel|san- * gen|
w: bo- * ren|sein.|||||||
 G,2 C2!<)! G,2 |"^f" C2 =E,2 G,2 | (C2 F,2 G,2) | %49
w: |||
w: al- le Ma-|ri- a, Ma-|ri- * *|
w: |||
"^Der englische Gruß Gegrüßet, Maria, du Mutter der Gnaden! So sangen die Engel der Jungfrau Maria In ihrem Gebete, darinnen sie rang. Maria, du sollst einen Sohn empfangen, Darnach tun Himmel und Erde verlangen, Daß du die Mutter des Herren sollst sein. O Engel, wie mag ich das erleben, Ich habe mich noch keinem Manne ergeben In dieser weiten und breiten Welt. Wie Tau kommt über die Blumenmatten, So soll dich der heilige Geist überschatten; So sollt der Heiland geboren sein. Maria die höret solches gerne, Sie sprach: ich bin eine Magd des Herren, Nach deinem Worte geschehe mir! Die Engel sanken auf ihre Knie, Sie sangen alle Maria, Maria, Sie sangen Maria den Lobgesang!""^The Angelic GreetingHail, Mary, mother of grace!Thus, sang the Angel to the maiden MaryHis prayers inside him swelled.Maria, you have received a son,Heaven and Earth commandThat you are the Mother of God.O Angel, in my experiences,I have had no relations with a manIn this entire wide world.As dew comes over the flowerbeds,So is it that the Holy Spirit has overcome you;So that our welfare should be born.Mary hearing such gladly,She spoke: I am the handmaid of God,So your word shall happen to me.The Angel sank to his knee,He sang Mary, Mary,He sang Mary’s praise!"!>(! !fermata!C4!>)!"^p" F,2 | %50
w: |
w: a, sie|
w: |
 A,2 B,2 C2 | F,2 G,2!<(! A,2 | _D3 C B,!<)!A, |"^f" (G,2 A,2) B,2 | !fermata!E,4 x2 |] z6 | %56
w: ||||||
w: san- gen Ma-|ri- a, Ma-|ri- a den _|Lob- * ge-|sang!||
w: ||||||

